!!!OTL: Juerg Drachentoedter.
!!!OTL-incipit: HERR KOENIG WAS RUFEST DU ACH UND WEH
!!!ARE: Europa, Mitteleuropa, Deutschland, Rhein
!!!SCT: Z1037
!!!TXL: @@DE
!!!YEM: Copyright 1995, estate of Helmut Schaffrath.
**kern	**text
*ICvox	*
*M6/4	*
*k[b-]	*
*F:	*
!LO:TX:a:t=Vorſänger.	!
!LO:TX:a:t=Aus den Rheinlanden.	!
{8aL	Herr
8gJ	.
=1	=1
4f	Kö-
4f	-nig,
4g	was
4a	ru-
4a	-feſt
4b-/	du
=2	=2
(4.cc	Ach
8dd)	.
8ccL	und
8b-J	.
2a}	Weh?
{8aL	mein
8gJ	.
=3	=3
4f	Töchter-
4f	.
4g	-lein
4a	kla-
4a	-get
4b-/	am
=4	=4
(4.cc	Dra-
8dd)	.
8ccL	-chen-
8b-J	.
2a	-ſee;
4r	.
=5	=5
!LO:TX:a:t=Alle.	!
2dd/	durch
4dd/	das
2b-;/	Ried
4r}	.
=6	=6
{2cc/	klingt
8cc/L	und
8b-J	.
2a	ʒieht
4cc/	das
=7	=7
(>4.cc/	Rei-
8b-/)	.
8b-/L	-ter-
8aJ	.
2g}	-lied!
{4g	Mein
=8	=8
4a	Töchter-
4a	.
4b-/	-lein
4cc/	kla-
4g	-get
4b-/	am
=9	=9
(>4.a	Dra-
8b-/)	.
4g	-chen-
2f}	-ſee!
==	==
!!!AGN: Romanze, Ballade
!!!ONB: ESAC (Essen Associative Code) Database: ZUCCAL
!!!AMT: compound duple
!!!AIN: vox
!!!EED: Helmut Schaffrath
!!!EEV: 1.0
!!@@COMMENT:"In original fragments for three - four voices"
!!@@END:
!!!RDF**kern: >= above
!!!GTL: I. Volks- Leuschen.
!!!URL-scan: https://www.digitale-sammlungen.de/de/view/bsb11160573?page=91
!!!ENC: Anna Maria Matuszewska
!!!EEV: 2025/03/02
*-	*-
